img/logos/airbnb.svg

<?xml version="1.0" encoding="UTF-8" standalone="no"?>
<svg width="500px" height="156px" viewBox="0 0 500 156" version="1.1" xmlns="http://www.w3.org/2000/svg" xmlns:xlink="http://www.w3.org/1999/xlink">
    <!-- Generator: Sketch 49.1 (51147) - http://www.bohemiancoding.com/sketch -->
    <title>airbnb-logo</title>
    <desc>Created with Sketch.</desc>
    <defs></defs>
    <g id="Page-1" stroke="none" stroke-width="1" fill="none" fill-rule="evenodd">
        <g id="airbnb-logo" fill="#7C7C7C" fill-rule="nonzero">
            <path d="M263.325947,39.1710103 C263.325947,44.7891632 258.800212,49.3148975 253.182059,49.3148975 C247.563906,49.3148975 243.038172,44.7891632 243.038172,39.1710103 C243.038172,33.5528575 247.407847,29.0271232 253.182059,29.0271232 C258.956272,29.183183 263.325947,33.7089173 263.325947,39.1710103 Z M221.50192,59.6148444 C221.50192,60.5512032 221.50192,62.1118012 221.50192,62.1118012 C221.50192,62.1118012 216.664066,55.8694092 206.364119,55.8694092 C189.3536,55.8694092 176.088517,68.8223727 176.088517,86.76925 C176.088517,104.560067 189.19754,117.669091 206.364119,117.669091 C216.820125,117.669091 221.50192,111.270639 221.50192,111.270639 L221.50192,113.923656 C221.50192,115.172134 222.438278,116.108493 223.686757,116.108493 L236.327601,116.108493 L236.327601,57.4300072 C236.327601,57.4300072 224.779175,57.4300072 223.686757,57.4300072 C222.438278,57.4300072 221.50192,58.5224258 221.50192,59.6148444 Z M221.50192,97.2252567 C219.161023,100.658572 214.479228,103.623709 208.861076,103.623709 C198.873248,103.623709 191.226318,97.3813165 191.226318,86.76925 C191.226318,76.1571834 198.873248,69.9147913 208.861076,69.9147913 C214.323169,69.9147913 219.317082,73.0359874 221.50192,76.3132432 L221.50192,97.2252567 Z M245.691189,57.4300072 L260.67293,57.4300072 L260.67293,116.108493 L245.691189,116.108493 L245.691189,57.4300072 Z M469.480945,55.8694092 C459.180998,55.8694092 454.343144,62.1118012 454.343144,62.1118012 L454.343144,29.183183 L439.361403,29.183183 L439.361403,116.108493 C439.361403,116.108493 450.909829,116.108493 452.002247,116.108493 C453.250726,116.108493 454.187084,115.016074 454.187084,113.923656 L454.187084,111.270639 C454.187084,111.270639 459.024938,117.669091 469.324885,117.669091 C486.335404,117.669091 499.600487,104.560067 499.600487,86.76925 C499.600487,68.9784325 486.335404,55.8694092 469.480945,55.8694092 Z M466.983988,103.467649 C461.209776,103.467649 456.684041,100.502513 454.343144,97.0691969 L454.343144,76.1571834 C456.684041,73.0359874 461.677955,69.7587315 466.983988,69.7587315 C476.971816,69.7587315 484.618746,76.0011236 484.618746,86.6131902 C484.618746,97.2252567 476.971816,103.467649 466.983988,103.467649 Z M431.558413,81.3071569 L431.558413,116.264553 L416.576672,116.264553 L416.576672,83.0238147 C416.576672,73.348107 413.455476,69.4466119 405.028247,69.4466119 C400.502513,69.4466119 395.820718,71.787509 392.855582,75.2208246 L392.855582,116.108493 L377.873841,116.108493 L377.873841,57.4300072 L389.734386,57.4300072 C390.982865,57.4300072 391.919223,58.5224258 391.919223,59.6148444 L391.919223,62.1118012 C396.288898,57.586067 402.063111,55.8694092 407.837323,55.8694092 C414.391835,55.8694092 419.853928,57.7421268 424.223602,61.487562 C429.529636,65.8572365 431.558413,71.4753894 431.558413,81.3071569 Z M341.511907,55.8694092 C331.21196,55.8694092 326.374107,62.1118012 326.374107,62.1118012 L326.374107,29.183183 L311.392366,29.183183 L311.392366,116.108493 C311.392366,116.108493 322.940791,116.108493 324.03321,116.108493 C325.281688,116.108493 326.218047,115.016074 326.218047,113.923656 L326.218047,111.270639 C326.218047,111.270639 331.055901,117.669091 341.355848,117.669091 C358.366366,117.669091 371.631449,104.560067 371.631449,86.76925 C371.787509,68.9784325 358.522426,55.8694092 341.511907,55.8694092 Z M339.014951,103.467649 C333.240738,103.467649 328.715004,100.502513 326.374107,97.0691969 L326.374107,76.1571834 C328.715004,73.0359874 333.708917,69.7587315 339.014951,69.7587315 C349.002778,69.7587315 356.649708,76.0011236 356.649708,86.6131902 C356.649708,97.2252567 349.002778,103.467649 339.014951,103.467649 Z M298.439402,55.8694092 C302.965136,55.8694092 305.306033,56.6497082 305.306033,56.6497082 L305.306033,70.5390306 C305.306033,70.5390306 292.821249,66.3254159 285.018259,75.2208246 L285.018259,116.264553 L270.036518,116.264553 L270.036518,57.4300072 C270.036518,57.4300072 281.584943,57.4300072 282.677362,57.4300072 C283.92584,57.4300072 284.862199,58.5224258 284.862199,59.6148444 L284.862199,62.1118012 C287.671276,58.8345454 293.757608,55.8694092 298.439402,55.8694092 Z M142.847779,110.80246 C142.06748,108.929742 141.287181,106.900964 140.506882,105.184307 C139.258404,102.37523 138.009925,99.7222136 136.917507,97.2252567 L136.761447,97.0691969 C125.993321,73.6602266 114.444895,49.9391367 102.272231,26.5301664 L101.804051,25.5938075 C100.555573,23.2529105 99.3070945,20.7559537 98.0586161,18.2589968 C96.498018,15.4499204 94.93742,12.4847842 92.4404632,9.67570773 C87.4465495,3.43331565 80.2677986,0 72.6208683,0 C64.8178782,0 57.7951871,3.43331565 52.6452136,9.36358813 C50.3043166,12.1726646 48.5876588,15.1378008 47.0270608,17.9468772 C45.7785824,20.4438341 44.5301039,22.9407909 43.2816255,25.2816879 L42.8134461,26.2180468 C30.7968413,49.6270171 19.0923562,73.348107 8.32422984,96.7570773 L8.16817004,97.0691969 C7.07575143,99.5661538 5.82727301,102.21917 4.57879459,105.028247 C3.79849558,106.744905 3.01819657,108.617622 2.23789756,110.6464 C0.209120135,116.420612 -0.415119074,121.882705 0.365179937,127.500858 C2.08183776,139.205343 9.88482787,149.037111 20.6529542,153.406785 C24.7105091,155.123443 28.9241237,155.903742 33.2937982,155.903742 C34.5422766,155.903742 36.1028746,155.747683 37.351353,155.591623 C42.5013265,154.967384 47.8073598,153.250726 52.9573333,150.285589 C59.3557851,146.696214 65.4421174,141.546241 72.3087487,134.05537 C79.17538,141.546241 85.4177721,146.696214 91.6601642,150.285589 C96.8101376,153.250726 102.116171,154.967384 107.266144,155.591623 C108.514623,155.747683 110.075221,155.903742 111.323699,155.903742 C115.693374,155.903742 120.063048,155.123443 123.964543,153.406785 C134.888729,149.037111 142.53566,139.049284 144.252317,127.500858 C145.500796,122.038765 144.876557,116.576672 142.847779,110.80246 Z M72.4648085,118.917569 C64.0375792,108.305503 58.5754861,98.3176753 56.7027685,89.890446 C55.9224695,86.3010706 55.7664097,83.1798745 56.2345891,80.3707981 C56.5467087,77.8738413 57.4830675,75.689004 58.7315459,73.8162864 C61.6966822,69.6026717 66.6905958,66.9496551 72.4648085,66.9496551 C78.2390212,66.9496551 83.3889947,69.4466119 86.1980711,73.8162864 C87.4465495,75.689004 88.3829083,77.8738413 88.6950279,80.3707981 C89.1632073,83.1798745 89.0071475,86.4571304 88.2268485,89.890446 C86.3541309,98.1616155 80.8920378,108.149443 72.4648085,118.917569 Z M134.73267,126.25238 C133.640251,134.36749 128.178158,141.390181 120.531228,144.511377 C116.785792,146.071975 112.728237,146.540154 108.670683,146.071975 C104.769188,145.603795 100.867692,144.355317 96.8101376,142.01442 C91.1919848,138.893224 85.5738319,134.05537 79.0193202,126.876619 C89.3192671,114.235775 95.5616592,102.68735 97.9025563,92.3874029 C98.9949749,87.549549 99.1510347,83.1798745 98.6828553,79.1223197 C98.0586161,75.2208246 96.6540778,71.6314492 94.4692406,68.5102531 C89.6313867,61.487562 81.516277,57.4300072 72.4648085,57.4300072 C63.41334,57.4300072 55.2982303,61.6436218 50.4603764,68.5102531 C48.2755392,71.6314492 46.871001,75.2208246 46.2467618,79.1223197 C45.6225226,83.1798745 45.7785824,87.7056088 47.0270608,92.3874029 C49.3679578,102.68735 55.7664097,114.391835 65.9102968,127.032679 C59.5118449,134.21143 53.7376323,139.049284 48.1194794,142.17048 C44.0619245,144.511377 40.1604295,145.759855 36.2589344,146.228035 C32.0453198,146.696214 27.9877649,146.071975 24.3983895,144.667437 C16.7514592,141.546241 11.2893661,134.523549 10.1969475,126.40844 C9.72876806,122.506945 10.0408877,118.60545 11.6014857,114.235775 C12.0696651,112.675177 12.8499641,111.114579 13.6302631,109.241861 C14.7226817,106.744905 15.9711601,104.091888 17.2196386,101.438871 L17.3756984,101.126752 C28.1438247,77.8738413 39.6922501,54.1527513 51.7088548,31.0559006 L52.1770342,30.1195418 C53.4255127,27.7786448 54.6739911,25.2816879 55.9224695,22.9407909 C57.1709479,20.4438341 58.5754861,18.102937 60.2921439,16.0741596 C63.5693998,12.3287244 67.9390743,10.2999469 72.7769281,10.2999469 C77.614782,10.2999469 81.9844564,12.3287244 85.2617123,16.0741596 C86.9783701,18.102937 88.3829083,20.4438341 89.6313867,22.9407909 C90.8798652,25.2816879 92.1283436,27.7786448 93.376822,30.1195418 L93.8450014,31.0559006 C105.705546,54.3088111 117.253972,78.0299011 128.022098,101.282812 L128.022098,101.438871 C129.270576,103.935828 130.362995,106.744905 131.611474,109.241861 C132.391773,111.114579 133.172072,112.675177 133.640251,114.235775 C134.888729,118.29333 135.356909,122.194825 134.73267,126.25238 Z" id="Shape"></path>
        </g>
    </g>
</svg>

<svg width="500" height="156" xmlns="http://www.w3.org/2000/svg"><path d="M263.33 39.171c0 5.618-4.526 10.144-10.144 10.144s-10.144-4.526-10.144-10.144 4.37-10.144 10.144-10.144c5.774.156 10.144 4.682 10.144 10.144zm-41.824 20.444v2.497s-4.838-6.242-15.138-6.242c-17.011 0-30.276 12.953-30.276 30.9 0 17.79 13.109 30.9 30.276 30.9 10.456 0 15.138-6.399 15.138-6.399v2.653c0 1.249.936 2.185 2.185 2.185h12.64V57.43h-12.64c-1.249 0-2.185 1.092-2.185 2.185zm0 37.61c-2.34 3.433-7.023 6.399-12.641 6.399-9.988 0-17.635-6.243-17.635-16.855s7.647-16.854 17.635-16.854c5.462 0 10.456 3.122 12.641 6.399v20.912zm24.189-39.795h14.982v58.678h-14.982V57.43zm223.79-1.56c-10.3 0-15.138 6.242-15.138 6.242v-32.93h-14.982v86.926h12.641c1.249 0 2.185-1.093 2.185-2.185v-2.653s4.838 6.398 15.138 6.398c17.01 0 30.276-13.109 30.276-30.9 0-17.79-13.265-30.9-30.12-30.9zm-2.497 47.597c-5.774 0-10.3-2.965-12.641-6.398V76.157c2.34-3.121 7.335-6.399 12.641-6.399 9.988 0 17.635 6.243 17.635 16.854 0 10.612-7.647 16.854-17.635 16.854zm-35.426-22.16v34.957H416.58v-33.24c0-9.676-3.121-13.578-11.548-13.578-4.526 0-9.208 2.341-12.173 5.775v40.888h-14.982V57.43h11.861c1.248 0 2.185 1.092 2.185 2.184v2.497c4.37-4.525 10.144-6.242 15.918-6.242 6.554 0 12.017 1.873 16.386 5.618 5.306 4.37 7.335 9.988 7.335 19.82zM341.515 55.87c-10.3 0-15.138 6.243-15.138 6.243v-32.93h-14.982v86.926h12.641c1.248 0 2.185-1.093 2.185-2.185v-2.653s4.838 6.399 15.138 6.399c17.01 0 30.276-13.11 30.276-30.9.156-17.792-13.11-30.9-30.12-30.9zm-2.497 47.598c-5.774 0-10.3-2.965-12.641-6.398V76.157c2.34-3.121 7.335-6.399 12.641-6.399 9.988 0 17.635 6.243 17.635 16.854 0 10.612-7.647 16.854-17.635 16.854zM298.442 55.87c4.526 0 6.867.78 6.867.78v13.89s-12.485-4.214-20.288 4.681v41.044h-14.982V57.43h12.64c1.25 0 2.185 1.093 2.185 2.185v2.497c2.81-3.277 8.896-6.242 13.577-6.242zm-155.59 54.933c-.78-1.872-1.56-3.901-2.34-5.618-1.25-2.809-2.498-5.462-3.59-7.959l-.156-.156c-10.768-23.409-22.317-47.13-34.49-70.539l-.468-.936c-1.248-2.341-2.497-4.838-3.745-7.335-1.56-2.81-3.121-5.774-5.618-8.583C87.45 3.433 80.272 0 72.625 0c-7.803 0-14.826 3.433-19.976 9.363-2.341 2.81-4.058 5.775-5.618 8.584-1.249 2.497-2.497 4.994-3.746 7.335l-.468.936C30.8 49.627 19.097 73.348 8.328 96.757l-.156.312c-1.092 2.497-2.34 5.15-3.59 7.96a102.76 102.76 0 0 0-2.34 5.617C.212 116.421-.411 121.882.369 127.5c1.717 11.704 9.52 21.536 20.288 25.906 4.058 1.717 8.271 2.497 12.641 2.497 1.249 0 2.81-.156 4.058-.312 5.15-.624 10.456-2.34 15.606-5.306 6.398-3.59 12.485-8.74 19.35-16.23 6.867 7.491 13.11 12.641 19.352 16.23 5.15 2.965 10.456 4.682 15.606 5.306 1.248.156 2.809.312 4.057.312 4.37 0 8.74-.78 12.641-2.497 10.924-4.37 18.571-14.358 20.288-25.906 1.249-5.462.624-10.924-1.404-16.698zm-70.383 8.115c-8.427-10.611-13.889-20.6-15.762-29.026-.78-3.59-.936-6.711-.468-9.52.312-2.497 1.248-4.682 2.497-6.555 2.965-4.213 7.959-6.866 13.733-6.866s10.924 2.497 13.733 6.866c1.248 1.873 2.185 4.058 2.497 6.555.468 2.809.312 6.086-.468 9.52-1.873 8.27-7.335 18.258-15.762 29.026zm62.268 7.335c-1.092 8.115-6.555 15.138-14.201 18.26-3.745 1.56-7.803 2.028-11.861 1.56-3.902-.468-7.803-1.717-11.861-4.058-5.618-3.12-11.236-7.959-17.791-15.138 10.3-12.64 16.542-24.189 18.883-34.489 1.092-4.838 1.248-9.207.78-13.265-.624-3.901-2.029-7.49-4.213-10.612-4.838-7.022-12.953-11.08-22.004-11.08s-17.167 4.214-22.004 11.08c-2.185 3.121-3.59 6.71-4.214 10.612-.624 4.058-.468 8.584.78 13.265 2.341 10.3 8.74 22.004 18.883 34.645-6.398 7.18-12.173 12.017-17.79 15.138-4.058 2.341-7.96 3.59-11.862 4.058a24.965 24.965 0 0 1-11.86-1.56c-7.648-3.122-13.11-10.145-14.202-18.26-.468-3.901-.156-7.803 1.405-12.173.468-1.56 1.248-3.12 2.029-4.994 1.092-2.497 2.34-5.15 3.59-7.803l.155-.312c10.768-23.253 22.317-46.974 34.333-70.07l.468-.937c1.249-2.341 2.497-4.838 3.746-7.179 1.248-2.497 2.653-4.838 4.37-6.866 3.277-3.746 7.646-5.775 12.484-5.775s9.208 2.03 12.485 5.775c1.717 2.028 3.122 4.37 4.37 6.866 1.249 2.341 2.497 4.838 3.746 7.179l.468.936a2069.035 2069.035 0 0 1 34.177 70.227v.156c1.248 2.497 2.34 5.306 3.59 7.803.78 1.873 1.56 3.434 2.028 4.994 1.248 4.058 1.717 7.96 1.092 12.017z" fill="#7C7C7C" fill-rule="nonzero"/></svg>
